X:1
T:O salutaris
T:O salutaris
T:Mélanie "Mel" Bonis (1858-1937)
C:Mélanie "Mel" Bonis (1858-1937)
%%score [ 1 2 3 4 ]
L:1/8
Q:1/4=92
M:3/4
K:D
V:1 treble nm="Soprano"
V:2 treble nm="Alto"
V:3 treble-8 nm="Tenor"
V:4 bass nm="Bass"
V:1
"^Andante (très recueilli)" z6 | z6 |!pp! D2 D2 D2 | E4 E2 | (F2 A2) =c2 |!<(! =c2 B4!<)! | %6
w: ||O sa- lu-|ta- ris|hos- * ti-|a _|
 ^c2 c2 c2 | (d2 A2) B2 | (A2 F2) G2 | A6 |!p! A4 B2 | G4 A2 |"^cresc." (B2 c2 d2) | d2 c2 d2 | %14
w: Quae cæ- li|pan- * dis|os- * ti-|um.|Bel- la|pre- munt|hos- * *|ti- li- a.|
 e2 (f2 g2- | g2) f4 |"^dim." (f2 e2) B2 | (A4 G2) | (F2 G2 E2) | F6- | !fermata!F6 | z6 | z6 | %23
w: Da ro- *|* bur|fer _ au-|xi- *|li- * *|um.|_|||
!p! D4 D2 | G4 G2 |"^cresc." (G2 A2 _B2- | B2 =B2) (=c2- | c2 B2) =c2 | !breath!^c4!mf! A2 | d6 | %30
w: Be- la|pre- munt|hos- * *|* * ti-|* * li-|a. Da|ro-|
 c2 z2 A2 | =f6 | e4 z2 | A4 A2 | A2"^cédez" G4 |!>(! A6- | A4!>)! z2 | z6 | z6 |!pp! D2 D2 D2 | %40
w: bur, Da|ro-|bur|fer au-|xi- li-|um.|_|||U- ni tri-|
 E4 E2 | (F2 A2) =c2 |!<(! =c2 B4!<)! | ^c2 c2 c2 | (d2 A2) B2 | (A2 F2) G2 | A6 |!p! A4 B2 | %48
w: no- que|Do- * mi-|no _|Sit sem- pi-|ter- * na|glo- * ri-|a|Qui vi-|
 (G4 A2) |"^cresc." (B2 c2) d2 | d2 c2 d2 | (e2 f2 g2- | g2) f4 |"^dim." (f2 e2 B2) | A4 G2 | %55
w: tam _|si- * ne|ter- mi- no|No- * *|* bis|do- * *|net in|
 (F2 G2) E2 | F6- | !fermata!F6 | z6 | z6 |!p! D4 D2 | G4 z2 |"^cresc." (G2 A2) (_B2- | %63
w: pa- * tri-|a.|_|||Qui vi-|tam|si- * ne|
 B2 =B2) (=c2- | c2 B2) =c2 | ^c4 z2 | d6 | c2 z2 z2 |!mf! =f6 | e4 z2 | A2 A2 A2 | A2"^cédez" G4 | %72
w: _ _ ter-|* * mi-|no.|No-|bis,|No-|bis|do- net in|pa- tri-|
!>(! A6- | A4!>)! z2 | z6 | z6 |!pp! D2 D2 D2 | E4 E2 | (F2 A2) =c2 | (=c2 B2) A2 | %80
w: a.|_|||O sa- lu-|ta- ris|hos- * ti-|a _ Quae|
!<(! (^G2 B2) d2!<)! | (d2 =c2) B2 |!>(! (B2 A2) =G2!>)! | F4 z2 |!p! F6- | F6 | E4 z2 | %87
w: cæ- * li|pan- * dis|os- * ti-|um.|A-||men,|
"^dim." (D4 G2- | G2 B4) | d6 |] %90
w: a- *||men.|
V:2
!pp! A,2 A,2 A,2 | B,4 !breath!B,2 | B,2 B,2 D2 | C4 C2 | D4 D2 |!<(! D4 ^D2!<)! | E2 E2 E2 | %7
w: O sa- lu-|ta- ris,|O sa- lu-|ta- ris|hos- ti-|a _|Quae cæ- li|
 (=D2 F2) D2 | (C2 D4 | ^D2 E2) ^E2 |!p! F6 | (F2 E2) ^D2 |"^cresc." E4 E2 | G4 G2 | G2 F2 E2 | %15
w: pan- * dis|os- *|* * ti-|um.|Bel- * la|pre- munt|hos- ti-|li- a. Da|
 D4 ^D2 |"^dim." ^D2 (E2 G2) | G2 F2 E2 | (E2 =D2 C2) | (C2 D2 B,2) | (D2 !fermata!C4) | z6 | %22
w: ro- bur,|Da ro- *|bur fer au-|xi- * *|li- * *|um. _||
!p! _B,4 B,2 | A,4 D2 | (D2 C2) =F2 |"^cresc." E4 E2 | E6 | =F4 F2 | !breath!E4!mf! A2 | %29
w: Bel- la|pre- munt,|Bel- * la|pre- munt|hos-|ti- li-|a. Da|
 (D2 E2 =F2) | (G2 E2) A2 | (A2 ^G2 B2) | (B2 c2) A2 | (G2 =F2 E2) | D4"^cédez" D2 |!>(! (D2 C4-) | %36
w: ro- * *|bur, _ Da|ro- * *|bur _ fer|au- * *|xi- li-|um. _|
 C4!>)! z2 |!pp! A,2 A,2 A,2 | B,4 !breath!B,2 | B,2 B,2 D2 | C4 C2 | D4 D2 |!<(! D4 ^D2!<)! | %43
w: _|U- ni tri-|no- que,|u- ni tri-|no- que|Do- mi-|no _|
 E2 E2 E2 | (=D2 F2) D2 | (C2 D4 | ^D2 E2) ^E2 |!p! F6 | (F2 =E2) ^D2 |"^cresc." E4 (E2 | G4) G2 | %51
w: Sit sem- pi-|ter- * na|glo- *|* * ri-|a|Qui _ vi-|tam si-|* ne|
 G2 F2 E2 | D4 ^D2 |"^dim." (^D2 E2 G2) | (G2 F2 E2) | (E2 =D2) C2 | (C2 D2) B,2 | %57
w: ter- mi- no.|No- bis,|No- * bis|do- * *|net _ in|pa- * tri-|
 (D2 !fermata!C4) | z6 |!p! _B,4 B,2 | (A,4 D2) | (D2 C2) =F2 |"^cresc." E4 E2 | E6 | =F4 F2 | %65
w: a. _||Qui vi-|tam, _|qui _ vi-|tam si-|ne|ter- mi-|
 E4 z2 | (D2 E2 =F2) | (G2 E2) z2 |!mf! (A2 ^G2 B2) | (B2 =c2) A2 | (G2 =F2) E2 | D4"^cédez" D2 | %72
w: no.|No- * *|bis, _|No- * *|bis _ do-|net _ in|pa- tri-|
!>(! (D2 ^C4- | C4)!>)! z2 |!pp!"^Tempo primo" A,2 A,2 A,2 | B,4 B,2 | B,2 B,2 D2 | C4 C2 | D4 D2 | %79
w: a. _|_|O sa- lu-|ta- ris,|O sa- lu-|ta- ris|hos- ti-|
 D6 |!<(! D2 E2 E2!<)! | E4 ^D2 |!>(! E4 E2!>)! | E2!p! (=D2 =C2 | B,2 C2 B,2 | ^A,4 B,2- | %86
w: a|Quae cæ- li|pan- dis|os- ti-|um. A- *|||
 B,2) ^C4 |"^dim." (=C4 B,2 | ^C2 D2 E2) | F6 |] %90
w: * men,|a- *||men.|
V:3
!pp! F2 F2 F2 | G4 !breath!G2 | G2 G2 B2 | _B4 B2 | (A2 F2) A2 |!<(! G4 B2!<)! | _B4 B2 | A4 G2 | %8
w: O sa- lu-|ta- ris,|O sa- lu-|ta- ris|hos- * ti-|a Quae|cæ- li|pan- dis|
 (E2 D2 G2) | (F2 E2) A2 |!p! A2 =c2 B2 | B4 B2 |"^cresc." B4 _B2 | A4 A2 | A6 | A4 z2 | %16
w: os- * *|ti- * um.|Bel- la pre-|munt hos-|ti- li-|a. Da|ro-|bur,|
"^dim." A2 (G2 B2) | c2 d2 B2 | (^A2 B2 G2) | (F4 ^G2) | (B2 !fermata!^A4) |!p! =A4 A2 | A2 G2 z2 | %23
w: Da ro- *|bur fer au-|xi- * *|li- *|um. _|Bel- la|pre- munt,|
 (G2 =F2) A2 | _B4 B2 |"^cresc." (_B2 A2 G2) | G6 | =c6 | !breath!A4!mf! A2 | (=F2 G2 A2) | %30
w: Bel- * la|pre- munt|hos- * *|ti-|li-|a. Da|ro- * *|
 (_B2 G2) A2 | (d2 =B2 ^G2) | (^G2 A2) c2 | (e2 d2 A2) | (=F2"^cédez" G2) D2 |!>(! E6- | %36
w: bur, _ Da|ro- * *|bur _ fer|au- * *|xi- * li-|um.|
 E4!>)! z2 |!pp! F2 F2 F2 | G4 !breath!G2 | G2 G2 B2 | _B4 B2 | (A2 F2) A2 |!<(! G4 B2!<)! | %43
w: _|U- ni tri-|no- que,|u- ni tri-|no- que|Do- * mi-|no Sit|
 _B4 B2 | A4 G2 | (E2 D2 G2) | (F2 E2) A2 |!p! A2 =c2 B2 | B4 B2 |"^cresc." B4 _B2 | A4 z2 | A6 | %52
w: sem- pi-|ter- na|glo- * *|ri- * a|Qui vi- tam|si- ne|ter- mi-|no.|No-|
 A4 z2 |"^dim." (A2 G2) B2 | (c2 d2 B2) | (^A2 B2) G2 | F4 ^G2 | (B2 !fermata!^A4) |!p! =A4 A2 | %59
w: bis,|No- * bis|do- * *|net _ in|pa- tri-|a. _|Qui vi-|
 (A2 G2) z2 | (G2 =F2) A2 | _B4 z2 |"^cresc." (_B2 A2) G2 | G6 | =c6 | A4 z2 | (=F2 G2 A2) | %67
w: tam, _|qui _ vi-|tam|si- * ne|ter-|mi-|no.|No- * *|
 (_B2 G2) z2 |!mf! (d2 =B2 ^G2) | (^G2 A2) c2 | (e2 d2) A2 | =F2"^cédez" G2 D2 |!>(! E6- | %73
w: bis, _|No- * *|bis _ do-|net _ in|pa- * tri-|a.|
 E4!>)! z2 |!pp!"^Tempo primo" ^F2 F2 F2 | G4 G2 | G2 G2 B2 | _B4 B2 | (A2 F2) A2 | G4 B2 | %80
w: _|O sa- lu-|ta- ris,|O sa- lu-|ta- ris|hos- * ti-|a Quae|
!<(! B2 ^G2 B2!<)! | A4 A2 |!>(! (^G2 A2 ^A2-!>)! | A2) (B2 d2) | D4 z2 |!p! D6 | G2 A2 G2 | %87
w: cæ- * li|pan- dis|os- * *|* ti- *|um.|A-|* * men,|
"^dim." (F4 E2- | E2 G4) | A6 |] %90
w: a- *||men.|
V:4
!pp! D,2 D,2 D,2 | D,4 !breath!D,2 | D,2 D,2 D,2 | D,4 D,2 | D,4 F,,2 |!<(! G,,6!<)! | %6
w: O sal- lu-|ta- ris,|O sa- lu-|ta- ris|hos- ti-|a|
 G,2 G,2 G,2 | (F,2 D,2) G,,2 | (A,,2 B,,4) | ^B,,2 C,4 |!p! D,2 ^D,2 D,2 | E,4 F,2 | %12
w: Quae cæ- li|pan- * dis|os- *|ti- um.|Bel- la pre-|munt hos-|
"^cresc." G,4 G,2 | E,4 D,2 | C,6 | =C,4 B,,2 |"^dim." E,6- | E,2 D,4 | (C,2 B,,2) B,,2 | %19
w: ti- li-|a. Da|ro-|bur, Da|ro-|* bur|fer _ au-|
 (^A,,2 B,,2) D,2 | !fermata!F,6 | z6 | z6 | z2 z2!p! (=F,2- | F,2 E,2) D,2 |"^cresc." C,4 C,2 | %26
w: xi- * li-|um.|||Bel-|* * la|pre- munt|
 (=C,2 B,,2 _B,,2) | A,,4 A,,2 | !breath!A,,4 z2 | z2 z2!mf! A,2 | A,,6 | A,,2 z2 A,,2 | %32
w: hos- * *|ti- li-|a.|Da|ro-|bur, Da|
 A,,4 A,,2 | (C,2 D,2) =C,2 | _B,,4"^cédez" B,,2 |!>(! A,,6- | A,,4!>)! z2 |!pp! D,2 D,2 D,2 | %38
w: ro- bur|fer _ au-|xi- li-|um.|_|U- ni tri-|
 D,4 !breath!D,2 | D,2 D,2 D,2 | D,4 D,2 | D,4 F,,2 |!<(! G,,6!<)! | G,2 G,2 G,2 | (F,2 D,2) G,,2 | %45
w: no- que,|u- ni tri-|no- que|Do- mi-|no|Sit sem- pi-|ter- * na|
 (A,,2 B,,4) | ^B,,2 C,4 |!p! D,2 ^D,2 D,2 | E,4 F,2 |"^cresc." G,4 G,2 | E,4 z2 | C,6 | =C,4 z2 | %53
w: glo- *|ri- a|Qui vi- tam|si- ne|ter- mi-|no.|No-|bis,|
"^dim." E,6- | E,2 D,4 | C,2 B,,2 B,,2 | (^A,,2 B,,2) D,2 | !fermata!F,6 | z6 | z6 | %60
w: No-|* bis|do- net in|pa- * tri-|a.|||
 z2 z2!p! (=F,2- | F,2 E,2) D,2 |"^cresc." C,4 C,2 | (=C,2 B,,2 _B,,2) | A,,4 A,,2 | A,,4 z2 | z6 | %67
w: Qui|_ _ vi-|tam si-|ne _ _|ter- mi-|no.||
 A,,6 | A,,2 z2 z2 |!mf! A,,4 A,,2 | C,2 D,2 =C,2 | _B,,4"^cédez" B,,2 |!>(! A,,6- | A,,4!>)! z2 | %74
w: No-|bis,|No- bis|do- net in|pa- tri-|a.|_|
!pp!"^Tempo primo" D,2 D,2 D,2 | D,4 D,2 | D,2 D,2 D,2 | D,4 D,2 | (D,4 F,,2) | (G,,2 G,2) =F,2 | %80
w: O sa- lu-|ta- ris,|O sa- lu-|ta- ris|hos- *|ti- * a|
!<(! E,2 E,2 ^G,,2!<)! | A,,4 B,,2 |!>(! (=C,4 ^C,2-!>)! | C,2) B,,2 =A,,2 |!p! (G,,2 A,,2 G,,2 | %85
w: Quae cæ- li|pan- dis|os- *|* ti- um.|A- * *|
 F,,2 G,,4) | A,,6 |"^dim." D,6- | D,6 | D,6 |] %90
w: |men,|a-||men.|

